svgs/duotone/person-rifle.svg

<svg xmlns="http://www.w3.org/2000/svg" viewBox="0 0 576 512"><!--! Font Awesome Pro 6.6.0 by @fontawesome - https://fontawesome.com License - https://fontawesome.com/license (Commercial License) Copyright 2024 Fonticons, Inc. --><defs><style>.fa-secondary{opacity:.4}</style></defs><path class="fa-secondary" d="M21.6 387.7c-11.2 19-4.9 43.5 14.1 54.8s43.5 4.9 54.8-14.1L144 337.7 144 512l192 0 0-300.1c-21-12.8-45.4-19.9-70.8-19.9l-50.4 0c-48.1 0-92.6 25.4-117.1 66.8L21.6 387.7zM160 80a80 80 0 1 0 160 0A80 80 0 1 0 160 80z"/><path class="fa-primary" d="M432 0l16 0c8.8 0 16 7.2 16 16l0 116.3c9.6 5.5 16 15.9 16 27.7l0 109.3 16-5.3 0-56c0-8.8 7.2-16 16-16l16 0c8.8 0 16 7.2 16 16l0 84.5c0 6.9-4.4 13-10.9 15.2L480 325.3l0 26.7 48 0c8.8 0 16 7.2 16 16l0 16c0 8.8-7.2 16-16 16l-44 0 23 92.1c2.5 10.1-5.1 19.9-15.5 19.9L432 512c-8.8 0-16-7.2-16-16l0-96-16 0c-17.7 0-32-14.3-32-32l0-144c0-17.7 14.3-32 32-32l0-32c0-11.8 6.4-22.2 16-27.7L416 32c-8.8 0-16-7.2-16-16s7.2-16 16-16l16 0z"/></svg>

<svg xmlns="http://www.w3.org/2000/svg" viewBox="0 0 576 512"><!--! Font Awesome Pro 6.4.0 by @fontawesome - https://fontawesome.com License - https://fontawesome.com/license (Commercial License) Copyright 2023 Fonticons, Inc. --><defs><style>.fa-secondary{opacity:.4}</style></defs><path class="fa-primary" d="M432 0h16c8.8 0 16 7.2 16 16V132.3c9.6 5.5 16 15.9 16 27.7V269.3l16-5.3V208c0-8.8 7.2-16 16-16h16c8.8 0 16 7.2 16 16v84.5c0 6.9-4.4 13-10.9 15.2L480 325.3V352h48c8.8 0 16 7.2 16 16v16c0 8.8-7.2 16-16 16H484l23 92.1c2.5 10.1-5.1 19.9-15.5 19.9H432c-8.8 0-16-7.2-16-16V400H400c-17.7 0-32-14.3-32-32V224c0-17.7 14.3-32 32-32V160c0-11.8 6.4-22.2 16-27.7V32c-8.8 0-16-7.2-16-16s7.2-16 16-16h16z"/><path class="fa-secondary" d="M336 211.9c-21-12.8-45.4-19.9-70.8-19.9H214.8c-48.1 0-92.6 25.4-117.1 66.8L21.6 387.7c-11.2 19-4.9 43.5 14.1 54.8s43.5 4.9 54.8-14.1L144 337.7V512H336V211.9zM240 160A80 80 0 1 0 240 0a80 80 0 1 0 0 160z"/></svg>
